;FLAVOR:Marlin
;TIME:1937
;Filament used: 3.24525m
;Layer height: 0.3
;MINX:135.159
;MINY:128.983
;MINZ:0.3
;MAXX:165.294
;MAXY:161.083
;MAXZ:34.49
;Generated with Cura_SteamEngine 4.3.0
M140 S60
M105
M190 S60
M104 S200
M105
M109 S200
M82 ;absolute extrusion mode
G28 ;Home
G1 Z15.0 F6000 ;Move the platform down 15mm
G92 E0
G1 F200 E15
G92 E0
G92 E0
G92 E0
G1 F1500 E-6
;LAYER_COUNT:144
;LAYER:0
M107
M205 X5 Y5
G0 F3600 X142.297 Y129.438 Z0.3
;TYPE:SKIRT
G1 F1500 E0
G1 F2400 X142.606 Y129.218 E0.0204
G1 X142.953 Y129.066 E0.04077
G1 X143.494 Y128.983 E0.07021
G1 X151.494 Y128.983 E0.50046
G1 X151.871 Y129.023 E0.52085
G1 X152.231 Y129.141 E0.54123
G1 X152.558 Y129.331 E0.56157
G1 X152.839 Y129.586 E0.58198
G1 X153.059 Y129.895 E0.60238
G1 X153.211 Y130.242 E0.62275
G1 X153.294 Y130.783 E0.65219
G1 X153.294 Y139.783 E1.13622
G1 X153.254 Y140.16 E1.15661
G1 X153.136 Y140.52 E1.17699
G1 X152.946 Y140.847 E1.19733
G1 X152.691 Y141.128 E1.21773
G1 X152.474 Y141.282 E1.23204
G1 X152.558 Y141.331 E1.23727
G1 X152.839 Y141.586 E1.25768
G1 X153.059 Y141.895 E1.27808
G1 X153.211 Y142.242 E1.29846
G1 X153.294 Y142.783 E1.32789
G1 X153.294 Y145.983 E1.49999
G1 X153.694 Y145.983 E1.52151
G1 X153.694 Y142.783 E1.69361
G1 X153.734 Y142.406 E1.714
G1 X153.852 Y142.046 E1.73437
G1 X154.042 Y141.719 E1.75471
G1 X154.297 Y141.438 E1.77512
G1 X154.514 Y141.284 E1.78943
G1 X154.43 Y141.235 E1.79466
G1 X154.149 Y140.98 E1.81507
G1 X153.929 Y140.671 E1.83547
G1 X153.777 Y140.324 E1.85584
G1 X153.694 Y139.783 E1.88528
G1 X153.694 Y130.783 E2.36931
G1 X153.734 Y130.406 E2.3897
G1 X153.852 Y130.046 E2.41008
G1 X154.042 Y129.719 E2.43042
G1 X154.297 Y129.438 E2.45083
G1 X154.606 Y129.218 E2.47123
G1 X154.953 Y129.066 E2.4916
G1 X155.494 Y128.983 E2.52104
G1 X163.494 Y128.983 E2.95129
G1 X163.871 Y129.023 E2.97168
G1 X164.231 Y129.141 E2.99205
G1 X164.558 Y129.331 E3.01239
G1 X164.839 Y129.586 E3.0328
G1 X165.059 Y129.895 E3.0532
G1 X165.211 Y130.242 E3.07358
G1 X165.294 Y130.783 E3.10301
G1 X165.294 Y139.783 E3.58705
G1 X165.254 Y140.16 E3.60744
G1 X165.136 Y140.52 E3.62781
G1 X164.946 Y140.847 E3.64815
G1 X164.691 Y141.128 E3.66856
G1 X164.474 Y141.282 E3.68287
G1 X164.558 Y141.331 E3.6881
G1 X164.839 Y141.586 E3.70851
G1 X165.059 Y141.895 E3.72891
G1 X165.211 Y142.242 E3.74928
G1 X165.294 Y142.783 E3.77872
G1 X165.294 Y151.783 E4.26275
G1 X165.254 Y152.16 E4.28314
G1 X165.136 Y152.52 E4.30352
G1 X164.946 Y152.847 E4.32386
G1 X164.691 Y153.128 E4.34426
G1 X164.382 Y153.348 E4.36466
G1 X164.035 Y153.5 E4.38504
G1 X163.494 Y153.583 E4.41448
G1 X157.794 Y153.583 E4.72103
G1 X157.794 Y159.283 E5.02759
G1 X157.754 Y159.66 E5.04798
G1 X157.636 Y160.02 E5.06835
G1 X157.446 Y160.347 E5.08869
G1 X157.191 Y160.628 E5.1091
G1 X156.882 Y160.848 E5.1295
G1 X156.535 Y161 E5.14987
G1 X155.994 Y161.083 E5.17931
G1 X146.159 Y161.083 E5.70825
G1 X145.782 Y161.043 E5.72864
G1 X145.422 Y160.925 E5.74902
G1 X145.095 Y160.735 E5.76936
G1 X144.814 Y160.48 E5.78976
G1 X144.594 Y160.171 E5.81016
G1 X144.442 Y159.824 E5.83054
G1 X144.359 Y159.283 E5.85997
G1 X144.358 Y154.283 E6.12888
G1 X144.398 Y153.907 E6.14922
G1 X144.504 Y153.583 E6.16755
G1 X143.494 Y153.583 E6.22187
G1 X143.117 Y153.543 E6.24226
G1 X142.757 Y153.425 E6.26264
G1 X142.43 Y153.235 E6.28298
G1 X142.149 Y152.98 E6.30338
G1 X141.929 Y152.671 E6.32378
G1 X141.777 Y152.324 E6.34416
G1 X141.694 Y151.783 E6.37359
G1 X141.694 Y142.783 E6.85763
G1 X141.734 Y142.406 E6.87802
G1 X141.852 Y142.046 E6.89839
G1 X142.042 Y141.719 E6.91873
G1 X142.297 Y141.438 E6.93914
G1 X142.514 Y141.284 E6.95345
G1 X142.43 Y141.235 E6.95868
G1 X142.149 Y140.98 E6.97909
G1 X141.929 Y140.671 E6.99949
G1 X141.777 Y140.324 E7.01986
G1 X141.694 Y139.783 E7.0493
G1 X141.694 Y130.783 E7.53333
G1 X141.734 Y130.406 E7.55372
G1 X141.852 Y130.046 E7.5741
G1 X142.042 Y129.719 E7.59444
G1 X142.297 Y129.438 E7.61485
G0 F3600 X142.687 Y129.639
G1 F2400 X142.981 Y129.48 E7.63282
G1 X143.305 Y129.396 E7.65082
G1 X143.494 Y129.383 E7.66101
G1 X151.494 Y129.383 E8.09127
G1 X151.826 Y129.423 E8.10925
G1 X152.138 Y129.54 E8.12717
G1 X152.415 Y129.728 E8.14518
G1 X152.638 Y129.976 E8.16311
G1 X152.797 Y130.27 E8.18109
G1 X152.881 Y130.594 E8.19909
G1 X152.894 Y130.783 E8.20928
G1 X152.894 Y139.783 E8.69331
G1 X152.854 Y140.115 E8.7113
G1 X152.737 Y140.427 E8.72922
G1 X152.549 Y140.704 E8.74722
G1 X152.301 Y140.927 E8.76516
G1 X152.007 Y141.086 E8.78314
G1 X151.683 Y141.17 E8.80114
G1 X151.494 Y141.183 E8.81133
G1 X143.494 Y141.183 E9.24158
G1 X143.162 Y141.143 E9.25957
G1 X142.85 Y141.026 E9.27749
G1 X142.573 Y140.838 E9.29549
G1 X142.35 Y140.59 E9.31343
G1 X142.191 Y140.296 E9.3314
G1 X142.107 Y139.972 E9.34941
G1 X142.094 Y139.783 E9.35959
G1 X142.094 Y130.783 E9.84363
G1 X142.134 Y130.451 E9.86161
G1 X142.251 Y130.139 E9.87953
G1 X142.439 Y129.862 E9.89754
G1 X142.687 Y129.639 E9.91548
G0 F3600 X142.833 Y130.032
G1 F2400 X143.069 Y129.878 E9.93063
G1 X143.339 Y129.795 E9.94582
G1 X143.494 Y129.783 E9.95418
G1 X151.494 Y129.783 E10.38444
G1 X151.773 Y129.823 E10.3996
G1 X152.03 Y129.939 E10.41476
G1 X152.245 Y130.122 E10.42995
G1 X152.399 Y130.358 E10.4451
G1 X152.482 Y130.628 E10.46029
G1 X152.494 Y130.783 E10.46865
G1 X152.494 Y139.783 E10.95269
G1 X152.454 Y140.062 E10.96785
G1 X152.338 Y140.319 E10.98301
G1 X152.155 Y140.534 E10.9982
G1 X151.919 Y140.688 E11.01335
G1 X151.649 Y140.771 E11.02854
G1 X151.494 Y140.783 E11.0369
G1 X143.494 Y140.783 E11.46716
G1 X143.215 Y140.743 E11.48232
G1 X142.958 Y140.627 E11.49748
G1 X142.743 Y140.444 E11.51267
G1 X142.589 Y140.208 E11.52782
G1 X142.506 Y139.938 E11.54301
G1 X142.494 Y139.783 E11.55137
G1 X142.494 Y130.783 E12.03541
G1 X142.534 Y130.504 E12.05057
G1 X142.65 Y130.247 E12.06573
G1 X142.833 Y130.032 E12.08092
G0 F3600 X143.047 Y130.382
G1 F2400 X143.22 Y130.249 E12.09265
G1 X143.494 Y130.183 E12.10781
G1 X151.494 Y130.183 E12.53806
G1 X151.709 Y130.223 E12.54982
G1 X151.895 Y130.336 E12.56153
G1 X152.028 Y130.509 E12.57327
G1 X152.094 Y130.783 E12.58842
G1 X152.094 Y139.783 E13.07246
G1 X152.054 Y139.998 E13.08422
G1 X151.941 Y140.184 E13.09592
G1 X151.768 Y140.317 E13.10766
G1 X151.494 Y140.383 E13.12282
G1 X143.494 Y140.383 E13.55307
G1 X143.279 Y140.343 E13.56483
G1 X143.093 Y140.23 E13.57654
G1 X142.96 Y140.057 E13.58827
G1 X142.894 Y139.783 E13.60343
G1 X142.894 Y130.783 E14.08747
G1 X142.934 Y130.568 E14.09923
G1 X143.047 Y130.382 E14.11093
G0 F3600 X143.333 Y130.664
G1 F2400 X143.494 Y130.583 E14.12062
G1 X151.494 Y130.583 E14.55088
G1 X151.613 Y130.622 E14.55761
G1 X151.694 Y130.783 E14.56731
G1 X151.694 Y139.783 E15.05134
G1 X151.655 Y139.902 E15.05808
G1 X151.494 Y139.983 E15.06777
G1 X143.494 Y139.983 E15.49802
G1 X143.375 Y139.944 E15.50476
G1 X143.294 Y139.783 E15.51445
G1 X143.294 Y130.783 E15.99848
G1 X143.333 Y130.664 E16.00522
G1 F1500 E10.00522
G0 F3600 X142.829 Y130.664
G0 X142.841 Y140.436
G0 X143.305 Y141.396
G1 F1500 E16.00522
G1 F2400 X143.494 Y141.383 E16.01541
G1 X151.494 Y141.383 E16.44566
G1 X151.826 Y141.423 E16.46365
G1 X152.138 Y141.54 E16.48157
G1 X152.415 Y141.728 E16.49957
G1 X152.638 Y141.976 E16.51751
G1 X152.797 Y142.27 E16.53548
G1 X152.881 Y142.594 E16.55349
G1 X152.894 Y142.783 E16.56367
G1 X152.894 Y146.383 E16.75729
G1 X154.094 Y146.383 E16.82183
G1 X154.094 Y142.783 E17.01544
G1 X154.134 Y142.451 E17.03342
G1 X154.251 Y142.139 E17.05135
G1 X154.439 Y141.862 E17.06935
G1 X154.687 Y141.639 E17.08729
G1 X154.981 Y141.48 E17.10526
G1 X155.305 Y141.396 E17.12326
G1 X155.494 Y141.383 E17.13345
G1 X163.494 Y141.383 E17.56371
G1 X163.826 Y141.423 E17.58169
G1 X164.138 Y141.54 E17.59961
G1 X164.415 Y141.728 E17.61762
G1 X164.638 Y141.976 E17.63555
G1 X164.797 Y142.27 E17.65353
G1 X164.881 Y142.594 E17.67153
G1 X164.894 Y142.783 E17.68172
G1 X164.894 Y151.783 E18.16575
G1 X164.854 Y152.115 E18.18374
G1 X164.737 Y152.427 E18.20166
G1 X164.549 Y152.704 E18.21966
G1 X164.301 Y152.927 E18.2376
G1 X164.007 Y153.086 E18.25558
G1 X163.683 Y153.17 E18.27358
G1 X163.494 Y153.183 E18.28377
G1 X157.394 Y153.183 E18.61184
G1 X157.394 Y159.283 E18.9399
G1 X157.354 Y159.615 E18.95789
G1 X157.237 Y159.927 E18.97581
G1 X157.049 Y160.204 E18.99381
G1 X156.801 Y160.427 E19.01175
G1 X156.507 Y160.586 E19.02973
G1 X156.183 Y160.67 E19.04773
G1 X155.994 Y160.683 E19.05792
G1 X146.159 Y160.683 E19.58686
G1 X145.827 Y160.643 E19.60484
G1 X145.515 Y160.526 E19.62276
G1 X145.238 Y160.338 E19.64077
G1 X145.015 Y160.09 E19.65871
G1 X144.856 Y159.796 E19.67668
G1 X144.772 Y159.472 E19.69468
G1 X144.759 Y159.283 E19.70487
G1 X144.758 Y154.283 E19.97378
G1 X144.798 Y153.952 E19.99171
G1 X144.915 Y153.639 E20.00968
G1 X145.103 Y153.363 E20.02764
G1 X145.302 Y153.183 E20.04207
G1 X143.494 Y153.183 E20.13931
G1 X143.162 Y153.143 E20.1573
G1 X142.85 Y153.026 E20.17522
G1 X142.573 Y152.838 E20.19322
G1 X142.35 Y152.59 E20.21116
G1 X142.191 Y152.296 E20.22914
G1 X142.107 Y151.972 E20.24714
G1 X142.094 Y151.783 E20.25733
G1 X142.094 Y142.783 E20.74136
G1 X142.134 Y142.451 E20.75934
G1 X142.251 Y142.139 E20.77727
G1 X142.439 Y141.862 E20.79527
G1 X142.687 Y141.639 E20.81321
G1 X142.981 Y141.48 E20.83118
G1 X143.305 Y141.396 E20.84918
G0 F3600 X143.339 Y141.795
G1 F2400 X143.494 Y141.783 E20.85755
G1 X151.494 Y141.783 E21.2878
G1 X151.773 Y141.823 E21.30296
G1 X152.03 Y141.939 E21.31812
G1 X152.245 Y142.122 E21.33331
G1 X152.399 Y142.358 E21.34846
G1 X152.482 Y142.628 E21.36365
G1 X152.494 Y142.783 E21.37201
G1 X152.494 Y146.783 E21.58714
G1 X154.494 Y146.783 E21.6947
G1 X154.494 Y142.783 E21.90983
G1 X154.534 Y142.504 E21.92499
G1 X154.65 Y142.247 E21.94015
G1 X154.833 Y142.032 E21.95534
G1 X155.069 Y141.878 E21.97049
G1 X155.339 Y141.795 E21.98569
G1 X155.494 Y141.783 E21.99405
G1 X163.494 Y141.783 E22.4243
G1 X163.773 Y141.823 E22.43946
G1 X164.03 Y141.939 E22.45462
G1 X164.245 Y142.122 E22.46981
G1 X164.399 Y142.358 E22.48496
G1 X164.482 Y142.628 E22.50016
G1 X164.494 Y142.783 E22.50852
G1 X164.494 Y151.783 E22.99255
G1 X164.454 Y152.062 E23.00771
G1 X164.338 Y152.319 E23.02287
G1 X164.155 Y152.534 E23.03806
G1 X163.919 Y152.688 E23.05321
G1 X163.649 Y152.771 E23.06841
G1 X163.494 Y152.783 E23.07677
G1 X156.994 Y152.783 E23.42635
G1 X156.994 Y159.283 E23.77593
G1 X156.954 Y159.562 E23.79109
G1 X156.838 Y159.819 E23.80625
G1 X156.655 Y160.034 E23.82144
G1 X156.419 Y160.188 E23.83659
G1 X156.149 Y160.271 E23.85178
G1 X155.994 Y160.283 E23.86015
G1 X146.159 Y160.283 E24.38909
G1 X145.88 Y160.243 E24.40425
G1 X145.623 Y160.127 E24.41941
G1 X145.408 Y159.944 E24.4346
G1 X145.254 Y159.708 E24.44975
G1 X145.171 Y159.438 E24.46494
G1 X145.159 Y159.283 E24.4733
G1 X145.158 Y154.283 E24.74221
G1 X145.198 Y154.004 E24.75737
G1 X145.314 Y153.747 E24.77254
G1 X145.497 Y153.532 E24.78772
G1 X145.733 Y153.378 E24.80288
G1 X146.003 Y153.295 E24.81807
G1 X146.158 Y153.283 E24.82643
G1 X149.994 Y153.283 E25.03273
G1 X149.994 Y152.783 E25.05963
G1 X143.494 Y152.783 E25.40921
G1 X143.215 Y152.743 E25.42436
G1 X142.958 Y152.627 E25.43953
G1 X142.743 Y152.444 E25.45471
G1 X142.589 Y152.208 E25.46987
G1 X142.506 Y151.938 E25.48506
G1 X142.494 Y151.783 E25.49342
G1 X142.494 Y142.783 E25.97746
G1 X142.534 Y142.504 E25.99262
G1 X142.65 Y142.247 E26.00778
G1 X142.833 Y142.032 E26.02296
G1 X143.069 Y141.878 E26.03812
G1 X143.339 Y141.795 E26.05331
G0 F3600 X143.494 Y142.183
G1 F2400 X151.494 Y142.183 E26.48356
G1 X151.709 Y142.223 E26.49533
G1 X151.895 Y142.336 E26.50703
G1 X152.028 Y142.509 E26.51877
G1 X152.094 Y142.783 E26.53392
G1 X152.094 Y147.183 E26.77056
G1 X154.894 Y147.183 E26.92115
G1 X154.894 Y142.783 E27.15779
G1 X154.934 Y142.568 E27.16955
G1 X155.047 Y142.382 E27.18126
G1 X155.22 Y142.249 E27.19299
G1 X155.494 Y142.183 E27.20815
G1 X163.494 Y142.183 E27.6384
G1 X163.709 Y142.223 E27.65017
G1 X163.895 Y142.336 E27.66187
G1 X164.028 Y142.509 E27.67361
G1 X164.094 Y142.783 E27.68876
G1 X164.094 Y151.783 E28.1728
G1 X164.054 Y151.998 E28.18456
G1 X163.941 Y152.184 E28.19627
G1 X163.768 Y152.317 E28.208
G1 X163.494 Y152.383 E28.22316
G1 X156.594 Y152.383 E28.59425
G1 X156.594 Y159.283 E28.96535
G1 X156.554 Y159.498 E28.97711
G1 X156.441 Y159.684 E28.98881
G1 X156.268 Y159.817 E29.00055
G1 X155.994 Y159.883 E29.01571
G1 X146.159 Y159.883 E29.54465
G1 X145.944 Y159.843 E29.55641
G1 X145.758 Y159.73 E29.56811
G1 X145.625 Y159.557 E29.57985
G1 X145.559 Y159.283 E29.59501
G1 X145.558 Y154.283 E29.86392
G1 X145.598 Y154.069 E29.87562
G1 X145.711 Y153.882 E29.88738
G1 X145.884 Y153.749 E29.89911
G1 X146.158 Y153.683 E29.91427
G1 X150.394 Y153.683 E30.14209
G1 X150.394 Y152.383 E30.212
G1 X143.494 Y152.383 E30.5831
G1 X143.279 Y152.343 E30.59486
G1 X143.093 Y152.23 E30.60656
G1 X142.96 Y152.057 E30.6183
G1 X142.894 Y151.783 E30.63346
G1 X142.894 Y142.783 E31.11749
G1 X142.934 Y142.568 E31.12925
G1 X143.047 Y142.382 E31.14096
G1 X143.22 Y142.249 E31.15269
G1 X143.494 Y142.183 E31.16785
G0 F3600 X143.494 Y142.583
G1 F2400 X151.494 Y142.583 E31.59811
G1 X151.613 Y142.622 E31.60484
G1 X151.694 Y142.783 E31.61453
G1 X151.694 Y147.583 E31.87269
G1 X155.294 Y147.583 E32.0663
G1 X155.294 Y142.783 E32.32445
G1 X155.333 Y142.664 E32.33119
G1 X155.494 Y142.583 E32.34088
G1 X163.494 Y142.583 E32.77113
G1 X163.613 Y142.622 E32.77787
G1 X163.694 Y142.783 E32.78756
G1 X163.694 Y151.783 E33.27159
G1 X163.655 Y151.902 E33.27833
G1 X163.494 Y151.983 E33.28802
G1 X156.194 Y151.983 E33.68063
G1 X156.194 Y159.283 E34.07323
G1 X156.155 Y159.402 E34.07997
G1 X155.994 Y159.483 E34.08966
G1 X146.159 Y159.483 E34.6186
G1 X146.04 Y159.444 E34.62534
G1 X145.959 Y159.283 E34.63503
G1 X145.958 Y154.283 E34.90394
G1 X145.997 Y154.164 E34.91068
G1 X146.158 Y154.083 E34.92037
G1 X150.794 Y154.083 E35.1697
G1 X150.794 Y151.983 E35.28264
G1 X143.494 Y151.983 E35.67525
G1 X143.375 Y151.944 E35.68198
G1 X143.294 Y151.783 E35.69168
G1 X143.294 Y142.783 E36.17571
G1 X143.333 Y142.664 E36.18245
G1 X143.494 Y142.583 E36.19214
G1 F1500 E30.19214
G0 F3600 X143.494 Y142.118
G0 X152.147 Y140.436
G0 X154.094 Y130.783
G1 F1500 E36.19214
G1 F2400 X154.134 Y130.451 E36.21012
G1 X154.251 Y130.139 E36.22804
G1 X154.439 Y129.862 E36.24605
G1 X154.687 Y129.639 E36.26399
G1 X154.981 Y129.48 E36.28196
G1 X155.305 Y129.396 E36.29996
G1 X155.494 Y129.383 E36.31015
G1 X163.494 Y129.383 E36.7404
G1 X163.826 Y129.423 E36.75839
G1 X164.138 Y129.54 E36.77631
G1 X164.415 Y129.728 E36.79431
G1 X164.638 Y129.976 E36.81225
G1 X164.797 Y130.27 E36.83023
G1 X164.881 Y130.594 E36.84823
G1 X164.894 Y130.783 E36.85842
G1 X164.894 Y139.783 E37.34245
G1 X164.854 Y140.115 E37.36044
G1 X164.737 Y140.427 E37.37836
G1 X164.549 Y140.704 E37.39636
G1 X164.301 Y140.927 E37.4143
G1 X164.007 Y141.086 E37.43228
G1 X163.683 Y141.17 E37.45028
G1 X163.494 Y141.183 E37.46047
G1 X155.494 Y141.183 E37.89072
G1 X155.162 Y141.143 E37.9087
G1 X154.85 Y141.026 E37.92662
G1 X154.573 Y140.838 E37.94463
G1 X154.35 Y140.59 E37.96257
G1 X154.191 Y140.296 E37.98054
G1 X154.107 Y139.972 E37.99854
G1 X154.094 Y139.783 E38.00873
G1 X154.094 Y130.783 E38.49277
G0 F3600 X154.494 Y130.783
G1 F2400 X154.534 Y130.504 E38.50793
G1 X154.65 Y130.247 E38.52309
G1 X154.833 Y130.032 E38.53827
G1 X155.069 Y129.878 E38.55343
G1 X155.339 Y129.795 E38.56862
G1 X155.494 Y129.783 E38.57698
G1 X163.494 Y129.783 E39.00724
G1 X163.773 Y129.823 E39.0224
G1 X164.03 Y129.939 E39.03756
G1 X164.245 Y130.122 E39.05274
G1 X164.399 Y130.358 E39.0679
G1 X164.482 Y130.628 E39.08309
G1 X164.494 Y130.783 E39.09145
G1 X164.494 Y139.783 E39.57549
G1 X164.454 Y140.062 E39.59065
G1 X164.338 Y140.319 E39.60581
G1 X164.155 Y140.534 E39.621
G1 X163.919 Y140.688 E39.63615
G1 X163.649 Y140.771 E39.65134
G1 X163.494 Y140.783 E39.6597
G1 X155.494 Y140.783 E40.08996
G1 X155.215 Y140.743 E40.10512
G1 X154.958 Y140.627 E40.12028
G1 X154.743 Y140.444 E40.13546
G1 X154.589 Y140.208 E40.15062
G1 X154.506 Y139.938 E40.16581
G1 X154.494 Y139.783 E40.17417
G1 X154.494 Y130.783 E40.65821
G0 F3600 X154.894 Y130.783
G1 F2400 X154.934 Y130.568 E40.66997
G1 X155.047 Y130.382 E40.68167
G1 X155.22 Y130.249 E40.69341
G1 X155.494 Y130.183 E40.70857
