;FLAVOR:Marlin
;TIME:2307
;Filament used: 0.549977m
;Layer height: 0.1
;MINX:132.2
;MINY:82.2
;MINZ:0.3
;MAXX:167.8
;MAXY:117.8
;MAXZ:20
;Generated with Cura_SteamEngine 4.11.0
M104 S200
M105
M109 S200
M82 ;absolute extrusion mode
G28 ;Home
G1 Z15.0 F6000 ;Move the platform down 15mm
;Prime the extruder
G92 E0
G1 F200 E3
G92 E0
G92 E0
G92 E0
G1 F1500 E-6.5
;LAYER_COUNT:198
;LAYER:0
M107
G0 F3600 X133.597 Y85.546 Z0.3
;TYPE:SKIRT
G1 F1500 E0
G1 F1800 X134.08 Y84.922 E0.01484
G1 X134.623 Y84.349 E0.02969
G1 X135.222 Y83.834 E0.04455
G1 X135.87 Y83.383 E0.0594
G1 X136.561 Y82.999 E0.07427
G1 X137.286 Y82.687 E0.08912
G1 X138.039 Y82.45 E0.10397
G1 X138.813 Y82.291 E0.11883
G1 X139.598 Y82.21 E0.13368
G1 X140 Y82.2 E0.14124
G1 X160 Y82.2 E0.51745
G1 X160.789 Y82.24 E0.53231
G1 X161.569 Y82.359 E0.54716
G1 X162.334 Y82.557 E0.56202
G1 X163.074 Y82.831 E0.57686
G1 X163.783 Y83.179 E0.59172
G1 X164.454 Y83.597 E0.60659
G1 X165.078 Y84.08 E0.62143
G1 X165.651 Y84.623 E0.63628
G1 X166.166 Y85.222 E0.65114
G1 X166.617 Y85.87 E0.66599
G1 X167.001 Y86.561 E0.68086
G1 X167.313 Y87.286 E0.69571
G1 X167.55 Y88.039 E0.71056
G1 X167.709 Y88.813 E0.72542
G1 X167.79 Y89.598 E0.74027
G1 X167.8 Y90 E0.74783
G1 X167.8 Y110 E1.12404
G1 X167.76 Y110.789 E1.1389
G1 X167.641 Y111.569 E1.15375
G1 X167.443 Y112.334 E1.16861
G1 X167.169 Y113.074 E1.18345
G1 X166.821 Y113.783 E1.19831
G1 X166.403 Y114.454 E1.21318
G1 X165.92 Y115.078 E1.22802
G1 X165.377 Y115.651 E1.24287
G1 X164.778 Y116.166 E1.25773
G1 X164.13 Y116.617 E1.27258
G1 X163.439 Y117.001 E1.28745
G1 X162.714 Y117.313 E1.3023
G1 X161.961 Y117.55 E1.31715
G1 X161.187 Y117.709 E1.33201
G1 X160.402 Y117.79 E1.34686
G1 X160 Y117.8 E1.35442
G1 X140 Y117.8 E1.73063
G1 X139.211 Y117.76 E1.74549
G1 X138.431 Y117.641 E1.76034
G1 X137.666 Y117.443 E1.7752
G1 X136.926 Y117.169 E1.79004
G1 X136.217 Y116.821 E1.8049
G1 X135.546 Y116.403 E1.81977
G1 X134.922 Y115.92 E1.83461
G1 X134.349 Y115.377 E1.84946
G1 X133.834 Y114.778 E1.86432
G1 X133.383 Y114.13 E1.87917
G1 X132.999 Y113.439 E1.89404
G1 X132.687 Y112.714 E1.90889
G1 X132.45 Y111.961 E1.92374
G1 X132.291 Y111.187 E1.9386
G1 X132.21 Y110.402 E1.95345
G1 X132.2 Y110 E1.96101
G1 X132.2 Y90 E2.33722
G1 X132.24 Y89.211 E2.35208
G1 X132.359 Y88.431 E2.36693
G1 X132.557 Y87.666 E2.38179
G1 X132.831 Y86.926 E2.39663
G1 X133.179 Y86.217 E2.41149
G1 X133.597 Y85.546 E2.42636
G0 F3600 X133.994 Y85.677
G1 F1800 X134.475 Y85.077 E2.44083
G1 X135.016 Y84.53 E2.4553
G1 X135.611 Y84.042 E2.46977
G1 X136.253 Y83.619 E2.48424
G1 X136.936 Y83.264 E2.49872
G1 X137.651 Y82.983 E2.51317
G1 X138.393 Y82.777 E2.52765
G1 X139.151 Y82.649 E2.54211
G1 X140 Y82.6 E2.55811
G1 X160 Y82.6 E2.93432
G1 X160.768 Y82.64 E2.94879
G1 X161.528 Y82.759 E2.96326
G1 X162.271 Y82.957 E2.97772
G1 X162.99 Y83.231 E2.99219
G1 X163.676 Y83.578 E3.00665
G1 X164.323 Y83.994 E3.02112
G1 X164.923 Y84.475 E3.03559
G1 X165.47 Y85.016 E3.05006
G1 X165.958 Y85.611 E3.06454
G1 X166.381 Y86.253 E3.079
G1 X166.736 Y86.936 E3.09348
G1 X167.017 Y87.651 E3.10793
G1 X167.223 Y88.393 E3.12241
G1 X167.351 Y89.151 E3.13687
G1 X167.4 Y90 E3.15287
G1 X167.4 Y110 E3.52908
G1 X167.36 Y110.768 E3.54355
G1 X167.241 Y111.528 E3.55802
G1 X167.043 Y112.271 E3.57248
G1 X166.769 Y112.99 E3.58696
G1 X166.422 Y113.676 E3.60142
G1 X166.006 Y114.323 E3.61589
G1 X165.525 Y114.923 E3.63035
G1 X164.984 Y115.47 E3.64482
G1 X164.389 Y115.958 E3.6593
G1 X163.747 Y116.381 E3.67376
G1 X163.064 Y116.736 E3.68824
G1 X162.349 Y117.017 E3.70269
G1 X161.607 Y117.223 E3.71718
G1 X160.849 Y117.351 E3.73164
G1 X160 Y117.4 E3.74763
G1 X140 Y117.4 E4.12384
G1 X139.232 Y117.36 E4.13831
G1 X138.472 Y117.241 E4.15278
G1 X137.729 Y117.043 E4.16724
G1 X137.01 Y116.769 E4.18172
G1 X136.324 Y116.422 E4.19618
G1 X135.677 Y116.006 E4.21065
G1 X135.077 Y115.525 E4.22511
G1 X134.53 Y114.984 E4.23958
G1 X134.042 Y114.389 E4.25406
G1 X133.619 Y113.747 E4.26852
G1 X133.264 Y113.064 E4.283
G1 X132.983 Y112.349 E4.29745
G1 X132.777 Y111.607 E4.31194
G1 X132.649 Y110.849 E4.3264
G1 X132.6 Y110 E4.34239
G1 X132.6 Y90 E4.71861
G1 X132.64 Y89.232 E4.73307
G1 X132.759 Y88.472 E4.74754
G1 X132.957 Y87.729 E4.76201
G1 X133.231 Y87.01 E4.77648
G1 X133.578 Y86.324 E4.79094
G1 X133.994 Y85.677 E4.80541
G0 F3600 X134.392 Y85.811
G1 F1800 X134.871 Y85.237 E4.81947
G1 X135.408 Y84.716 E4.83355
G1 X135.998 Y84.257 E4.84761
G1 X136.634 Y83.862 E4.86169
G1 X137.308 Y83.538 E4.87576
G1 X138.013 Y83.288 E4.88983
G1 X138.741 Y83.114 E4.90391
G1 X139.483 Y83.019 E4.91798
G1 X140 Y83 E4.92771
G1 X160 Y83 E5.30392
G1 X160.747 Y83.04 E5.31799
G1 X161.485 Y83.159 E5.33206
G1 X162.207 Y83.357 E5.34614
G1 X162.903 Y83.63 E5.3602
G1 X163.566 Y83.977 E5.37428
G1 X164.189 Y84.392 E5.38836
G1 X164.763 Y84.871 E5.40242
G1 X165.284 Y85.408 E5.4165
G1 X165.743 Y85.998 E5.43056
G1 X166.138 Y86.634 E5.44464
G1 X166.462 Y87.308 E5.45871
G1 X166.712 Y88.013 E5.47278
G1 X166.886 Y88.741 E5.48686
G1 X166.981 Y89.483 E5.50093
G1 X167 Y90 E5.51066
G1 X167 Y110 E5.88687
G1 X166.96 Y110.747 E5.90094
G1 X166.841 Y111.485 E5.915
G1 X166.643 Y112.207 E5.92909
G1 X166.37 Y112.903 E5.94315
G1 X166.023 Y113.566 E5.95723
G1 X165.608 Y114.189 E5.97131
G1 X165.129 Y114.763 E5.98537
G1 X164.592 Y115.284 E5.99944
G1 X164.002 Y115.743 E6.01351
G1 X163.366 Y116.138 E6.02759
G1 X162.692 Y116.462 E6.04166
G1 X161.987 Y116.712 E6.05573
G1 X161.259 Y116.886 E6.06981
G1 X160.517 Y116.981 E6.08388
G1 X160 Y117 E6.09361
G1 X140 Y117 E6.46982
G1 X139.253 Y116.96 E6.48389
G1 X138.515 Y116.841 E6.49795
G1 X137.793 Y116.643 E6.51204
G1 X137.097 Y116.37 E6.5261
G1 X136.434 Y116.023 E6.54018
G1 X135.811 Y115.608 E6.55426
G1 X135.237 Y115.129 E6.56832
G1 X134.716 Y114.592 E6.58239
G1 X134.257 Y114.002 E6.59646
G1 X133.862 Y113.366 E6.61054
G1 X133.538 Y112.692 E6.62461
G1 X133.288 Y111.987 E6.63868
G1 X133.114 Y111.259 E6.65276
G1 X133.019 Y110.517 E6.66683
G1 X133 Y110 E6.67656
G1 X133 Y90 E7.05277
G1 X133.04 Y89.253 E7.06684
G1 X133.159 Y88.515 E7.0809
G1 X133.357 Y87.793 E7.09499
G1 X133.63 Y87.097 E7.10905
G1 X133.977 Y86.434 E7.12313
G1 X134.392 Y85.811 E7.13721
G0 F3600 X134.789 Y85.95
G1 F1800 X135.265 Y85.402 E7.15086
G1 X135.799 Y84.909 E7.16453
G1 X136.384 Y84.479 E7.17819
G1 X137.013 Y84.115 E7.19186
G1 X137.678 Y83.822 E7.20553
G1 X138.371 Y83.604 E7.21919
G1 X139.083 Y83.464 E7.23284
G1 X140 Y83.4 E7.25013
G1 X160 Y83.4 E7.62635
G1 X160.725 Y83.44 E7.64
G1 X161.442 Y83.559 E7.65368
G1 X162.141 Y83.757 E7.66734
G1 X162.814 Y84.03 E7.681
G1 X163.453 Y84.375 E7.69466
G1 X164.05 Y84.789 E7.70833
G1 X164.598 Y85.265 E7.72198
G1 X165.091 Y85.799 E7.73565
G1 X165.521 Y86.384 E7.74931
G1 X165.885 Y87.013 E7.76298
G1 X166.178 Y87.678 E7.77665
G1 X166.396 Y88.371 E7.79032
G1 X166.536 Y89.083 E7.80397
G1 X166.6 Y90 E7.82126
G1 X166.6 Y110 E8.19747
G1 X166.56 Y110.725 E8.21113
G1 X166.441 Y111.442 E8.2248
G1 X166.243 Y112.141 E8.23846
G1 X165.97 Y112.814 E8.25213
G1 X165.625 Y113.453 E8.26579
G1 X165.211 Y114.05 E8.27945
G1 X164.735 Y114.598 E8.29311
G1 X164.201 Y115.091 E8.30678
G1 X163.616 Y115.521 E8.32043
G1 X162.987 Y115.885 E8.3341
G1 X162.322 Y116.178 E8.34777
G1 X161.629 Y116.396 E8.36144
G1 X160.917 Y116.536 E8.37509
G1 X160 Y116.6 E8.39238
G1 X140 Y116.6 E8.76859
G1 X139.275 Y116.56 E8.78225
G1 X138.558 Y116.441 E8.79592
G1 X137.859 Y116.243 E8.80959
G1 X137.186 Y115.97 E8.82325
G1 X136.547 Y115.625 E8.83691
G1 X135.95 Y115.211 E8.85057
G1 X135.402 Y114.735 E8.86423
G1 X134.909 Y114.201 E8.8779
G1 X134.479 Y113.616 E8.89156
G1 X134.115 Y112.987 E8.90523
G1 X133.822 Y112.322 E8.9189
G1 X133.604 Y111.629 E8.93256
G1 X133.464 Y110.917 E8.94621
G1 X133.4 Y110 E8.9635
G1 X133.4 Y90 E9.33971
G1 X133.44 Y89.275 E9.35337
G1 X133.559 Y88.558 E9.36704
G1 X133.757 Y87.859 E9.38071
G1 X134.03 Y87.186 E9.39437
G1 X134.375 Y86.547 E9.40803
G1 X134.789 Y85.95 E9.4217
G0 F3600 X134.774 Y86.665
G1 F1800 X135.185 Y86.094 E9.43493
G1 X135.659 Y85.573 E9.44818
G1 X136.189 Y85.109 E9.46143
G1 X136.768 Y84.709 E9.47467
G1 X137.389 Y84.377 E9.48791
G1 X138.043 Y84.117 E9.50115
G1 X138.723 Y83.933 E9.5144
G1 X139.419 Y83.827 E9.52765
G1 X140 Y83.8 E9.53859
G1 X160 Y83.8 E9.9148
G1 X160.703 Y83.84 E9.92804
G1 X161.397 Y83.959 E9.94129
G1 X162.072 Y84.157 E9.95452
G1 X162.721 Y84.429 E9.96776
G1 X163.335 Y84.774 E9.98101
G1 X163.906 Y85.185 E9.99424
G1 X164.427 Y85.659 E10.00749
G1 X164.891 Y86.189 E10.02074
G1 X165.291 Y86.768 E10.03398
G1 X165.623 Y87.389 E10.04722
G1 X165.883 Y88.043 E10.06046
G1 X166.067 Y88.723 E10.07371
G1 X166.173 Y89.419 E10.08696
G1 X166.2 Y90 E10.0979
G1 X166.2 Y110 E10.47411
G1 X166.16 Y110.703 E10.48735
G1 X166.041 Y111.397 E10.5006
G1 X165.843 Y112.072 E10.51383
G1 X165.571 Y112.721 E10.52707
G1 X165.226 Y113.335 E10.54031
G1 X164.815 Y113.906 E10.55355
G1 X164.341 Y114.427 E10.5668
G1 X163.811 Y114.891 E10.58005
G1 X163.232 Y115.291 E10.59329
G1 X162.611 Y115.623 E10.60653
G1 X161.957 Y115.883 E10.61977
G1 X161.277 Y116.067 E10.63302
G1 X160.581 Y116.173 E10.64626
G1 X160 Y116.2 E10.65721
G1 X140 Y116.2 E11.03342
G1 X139.297 Y116.16 E11.04666
G1 X138.603 Y116.041 E11.05991
G1 X137.928 Y115.843 E11.07314
G1 X137.279 Y115.571 E11.08638
G1 X136.665 Y115.226 E11.09962
G1 X136.094 Y114.815 E11.11286
G1 X135.573 Y114.341 E11.12611
G1 X135.109 Y113.811 E11.13936
G1 X134.709 Y113.232 E11.15259
G1 X134.377 Y112.611 E11.16584
G1 X134.117 Y111.957 E11.17908
G1 X133.933 Y111.277 E11.19233
G1 X133.827 Y110.581 E11.20557
G1 X133.8 Y110 E11.21651
G1 X133.8 Y90 E11.59273
G1 X133.84 Y89.297 E11.60597
G1 X133.959 Y88.603 E11.61922
G1 X134.157 Y87.928 E11.63245
G1 X134.429 Y87.279 E11.64568
G1 X134.774 Y86.665 E11.65893
G0 F3600 X135.172 Y86.786
G1 F1800 X135.582 Y86.242 E11.67175
G1 X136.053 Y85.751 E11.68454
G1 X136.578 Y85.317 E11.69736
G1 X137.15 Y84.948 E11.71016
G1 X137.762 Y84.649 E11.72297
G1 X138.404 Y84.424 E11.73577
G1 X139.069 Y84.275 E11.74859
G1 X140 Y84.2 E11.76616
G1 X160 Y84.2 E12.14237
G1 X160.68 Y84.24 E12.15518
G1 X161.35 Y84.359 E12.16798
G1 X162.002 Y84.556 E12.1808
G1 X162.626 Y84.828 E12.1936
G1 X163.214 Y85.172 E12.20642
G1 X163.758 Y85.582 E12.21923
G1 X164.249 Y86.053 E12.23203
G1 X164.683 Y86.578 E12.24484
G1 X165.052 Y87.15 E12.25764
G1 X165.351 Y87.762 E12.27046
G1 X165.576 Y88.404 E12.28325
G1 X165.725 Y89.069 E12.29607
G1 X165.8 Y90 E12.31364
G1 X165.8 Y110 E12.68985
G1 X165.76 Y110.68 E12.70267
G1 X165.641 Y111.35 E12.71547
G1 X165.444 Y112.002 E12.72828
G1 X165.172 Y112.626 E12.74108
G1 X164.828 Y113.214 E12.7539
G1 X164.418 Y113.758 E12.76671
G1 X163.947 Y114.249 E12.77951
G1 X163.422 Y114.683 E12.79232
G1 X162.85 Y115.052 E12.80513
G1 X162.238 Y115.351 E12.81794
G1 X161.596 Y115.576 E12.83074
G1 X160.931 Y115.725 E12.84356
G1 X160 Y115.8 E12.86113
G1 X140 Y115.8 E13.23734
G1 X139.32 Y115.76 E13.25015
G1 X138.65 Y115.641 E13.26295
G1 X137.998 Y115.444 E13.27576
G1 X137.374 Y115.172 E13.28857
G1 X136.786 Y114.828 E13.30138
G1 X136.242 Y114.418 E13.31419
G1 X135.751 Y113.947 E13.32699
G1 X135.317 Y113.422 E13.33981
G1 X134.948 Y112.85 E13.35261
G1 X134.649 Y112.238 E13.36542
G1 X134.424 Y111.596 E13.37822
G1 X134.275 Y110.931 E13.39104
G1 X134.2 Y110 E13.40861
G1 X134.2 Y90 E13.78482
G1 X134.24 Y89.32 E13.79763
G1 X134.359 Y88.65 E13.81043
G1 X134.556 Y87.998 E13.82324
G1 X134.828 Y87.374 E13.83605
G1 X135.172 Y86.786 E13.84886
G0 F3600 X135.57 Y86.912
G1 F1800 X135.978 Y86.397 E13.86122
G1 X136.445 Y85.935 E13.87358
G1 X136.965 Y85.534 E13.88593
G1 X137.529 Y85.198 E13.89828
G1 X138.131 Y84.934 E13.91065
G1 X138.76 Y84.744 E13.92301
G1 X139.407 Y84.633 E13.93535
G1 X140 Y84.6 E13.94653
G1 X160 Y84.6 E14.32274
G1 X160.656 Y84.64 E14.3351
G1 X161.302 Y84.759 E14.34746
G1 X161.929 Y84.956 E14.35982
G1 X162.527 Y85.228 E14.37218
G1 X163.088 Y85.57 E14.38454
G1 X163.603 Y85.978 E14.39689
G1 X164.065 Y86.445 E14.40925
G1 X164.466 Y86.965 E14.4216
G1 X164.802 Y87.529 E14.43395
G1 X165.066 Y88.131 E14.44632
G1 X165.256 Y88.76 E14.45868
G1 X165.367 Y89.407 E14.47103
G1 X165.4 Y90 E14.4822
G1 X165.4 Y110 E14.85841
G1 X165.36 Y110.656 E14.87077
G1 X165.241 Y111.302 E14.88313
G1 X165.044 Y111.929 E14.89549
G1 X164.772 Y112.527 E14.90785
G1 X164.43 Y113.088 E14.92021
G1 X164.022 Y113.603 E14.93257
G1 X163.555 Y114.065 E14.94492
G1 X163.035 Y114.466 E14.95727
G1 X162.471 Y114.802 E14.96962
G1 X161.869 Y115.066 E14.98199
G1 X161.24 Y115.256 E14.99435
G1 X160.593 Y115.367 E15.0067
G1 X160 Y115.4 E15.01787
G1 X140 Y115.4 E15.39408
G1 X139.344 Y115.36 E15.40644
G1 X138.698 Y115.241 E15.4188
G1 X138.071 Y115.044 E15.43116
G1 X137.473 Y114.772 E15.44352
G1 X136.912 Y114.43 E15.45588
G1 X136.397 Y114.022 E15.46824
G1 X135.935 Y113.555 E15.48059
G1 X135.534 Y113.035 E15.49295
G1 X135.198 Y112.471 E15.5053
G1 X134.934 Y111.869 E15.51766
G1 X134.744 Y111.24 E15.53002
G1 X134.633 Y110.593 E15.54237
G1 X134.6 Y110 E15.55354
G1 X134.6 Y90 E15.92975
G1 X134.64 Y89.344 E15.94211
G1 X134.759 Y88.698 E15.95447
G1 X134.956 Y88.071 E15.96683
G1 X135.228 Y87.473 E15.97919
G1 X135.57 Y86.912 E15.99155
G0 F3600 X135.967 Y87.044
G1 F1800 X136.373 Y86.559 E16.00345
G1 X136.836 Y86.129 E16.01533
G1 X137.35 Y85.76 E16.02724
G1 X137.906 Y85.46 E16.03912
G1 X138.495 Y85.232 E16.051
G1 X139.109 Y85.08 E16.0629
G1 X140 Y85 E16.07973
G1 X160 Y85 E16.45594
G1 X160.631 Y85.04 E16.46783
G1 X161.252 Y85.159 E16.47972
G1 X161.852 Y85.356 E16.4916
G1 X162.424 Y85.627 E16.50351
G1 X162.956 Y85.967 E16.51539
G1 X163.441 Y86.373 E16.52728
G1 X163.871 Y86.836 E16.53917
G1 X164.24 Y87.35 E16.55107
G1 X164.54 Y87.906 E16.56296
G1 X164.768 Y88.495 E16.57484
G1 X164.92 Y89.109 E16.58673
G1 X165 Y90 E16.60356
G1 X165 Y110 E16.97977
G1 X164.96 Y110.631 E16.99167
G1 X164.841 Y111.252 E17.00356
G1 X164.644 Y111.852 E17.01544
G1 X164.373 Y112.424 E17.02735
G1 X164.033 Y112.956 E17.03922
G1 X163.627 Y113.441 E17.05112
G1 X163.164 Y113.871 E17.06301
G1 X162.65 Y114.24 E17.07491
G1 X162.094 Y114.54 E17.08679
G1 X161.505 Y114.768 E17.09867
G1 X160.891 Y114.92 E17.11057
G1 X160 Y115 E17.1274
G1 X140 Y115 E17.50361
G1 X139.369 Y114.96 E17.5155
G1 X138.748 Y114.841 E17.5274
G1 X138.148 Y114.644 E17.53928
G1 X137.576 Y114.373 E17.55118
G1 X137.044 Y114.033 E17.56306
G1 X136.559 Y113.627 E17.57496
G1 X136.129 Y113.164 E17.58684
G1 X135.76 Y112.65 E17.59874
G1 X135.46 Y112.094 E17.61063
G1 X135.232 Y111.505 E17.62251
G1 X135.08 Y110.891 E17.63441
G1 X135 Y110 E17.65123
G1 X135 Y90 E18.02745
G1 X135.04 Y89.369 E18.03934
G1 X135.159 Y88.748 E18.05123
G1 X135.356 Y88.148 E18.06311
G1 X135.627 Y87.576 E18.07502
G1 X135.967 Y87.044 E18.08689
G0 F3600 X136.365 Y87.181
G1 F1800 X136.767 Y86.728 E18.09829
G1 X137.225 Y86.331 E18.10969
G1 X137.732 Y85.998 E18.1211
G1 X138.278 Y85.734 E18.13251
G1 X138.854 Y85.545 E18.14391
G1 X139.45 Y85.433 E18.15532
G1 X140 Y85.4 E18.16568
G1 X160 Y85.4 E18.54189
G1 X160.605 Y85.44 E18.5533
G1 X161.199 Y85.559 E18.56469
G1 X161.773 Y85.755 E18.5761
G1 X162.316 Y86.026 E18.58752
G1 X162.819 Y86.365 E18.59893
G1 X163.272 Y86.767 E18.61032
G1 X163.669 Y87.225 E18.62172
G1 X164.002 Y87.732 E18.63313
G1 X164.266 Y88.278 E18.64454
G1 X164.455 Y88.854 E18.65594
G1 X164.567 Y89.45 E18.66735
G1 X164.6 Y90 E18.67772
G1 X164.6 Y110 E19.05393
G1 X164.56 Y110.605 E19.06533
G1 X164.441 Y111.199 E19.07673
G1 X164.245 Y111.773 E19.08814
G1 X163.974 Y112.316 E19.09955
G1 X163.635 Y112.819 E19.11096
G1 X163.233 Y113.272 E19.12236
G1 X162.775 Y113.669 E19.13376
G1 X162.268 Y114.002 E19.14517
G1 X161.722 Y114.266 E19.15657
G1 X161.146 Y114.455 E19.16798
G1 X160.55 Y114.567 E19.17939
G1 X160 Y114.6 E19.18975
G1 X140 Y114.6 E19.56596
G1 X139.395 Y114.56 E19.57737
G1 X138.801 Y114.441 E19.58876
G1 X138.227 Y114.245 E19.60017
G1 X137.684 Y113.974 E19.61159
G1 X137.181 Y113.635 E19.623
G1 X136.728 Y113.233 E19.63439
G1 X136.331 Y112.775 E19.64579
G1 X135.998 Y112.268 E19.6572
G1 X135.734 Y111.722 E19.66861
G1 X135.545 Y111.146 E19.68001
G1 X135.433 Y110.55 E19.69142
G1 X135.4 Y110 E19.70178
G1 X135.4 Y90 E20.07799
G1 X135.44 Y89.395 E20.0894
G1 X135.559 Y88.801 E20.1008
G1 X135.755 Y88.227 E20.1122
G1 X136.026 Y87.684 E20.12362
